!!!COM: Beethoven
!!!OTL: 24 Variationen uber Venni Amore von V. Righini
!!!Variation: Variation 6 b
**function	**harm	**kern	**kern	**kern	**kern
*M2/4	*M2/4	*staff3	*staff4	*staff1	*staff2
*D:	*D:	*clefF4	*clefF4	*clefG2	*clefG2
*tb8	*	*k[f#c#]	*k[f#c#]	*k[f#c#]	*k[f#c#]
*	*	*M2/4	*M2/4	*M2/4	*M2/4
*	*	*D:	*D:	*D:	*D:
=	=	=-	=-	=-	=-
8D	8V	2r	2r	8a' 8ee'	2r
4D	4I	.	.	(4dd 4ff#	.
8D	8V43	.	.	8ee') 8gg'	.
*	*	*	*clefG2	*	*
=	=	=105	=105	=105	=105
2D	2I	2r	(8f#L 8a	4ff#' 4aa'	2r
.	.	.	8c#'J) 8e'	.	.
.	.	.	(8c#L 8e	4r	.
.	.	.	8d'J) 8f#'	.	.
=	=	=106	=106	=106	=106
8D	8V43	2r	4A 4e	8ee' 8gg'	2r
4D	4I	.	.	(4dd 4ff#	.
.	.	.	4r	.	.
8D	8V	.	.	8a') 8ee'	.
*	*	*	*clefF4	*	*
=	=	=107	=107	=107	=107
8D	8I6	2r	(8F#L 8d	4f#' 4dd'	2r
4D	4V64	.	8E'J) 8A'	.	.
.	.	.	(8EL 8A	4r	.
8D	8I	.	8D'J) 8F#'	.	.
=	=	=108	=108	=108	=108
8D	8V	2r	4AA 4E	8A' 8e'	2r
4D	4I	.	.	(4d 4f#	.
.	.	.	4r	.	.
8D	8V43	.	.	8e') 8g'	.
=	=	=109	=109	=109	=109
8D	8I6	2r	(8FF#L 8D	4f#' 4a'	2r
4D	4V64	.	8EE'J) 8AA'	.	.
.	.	.	(8EEL 8AA	4r	.
8D	8I	.	8DD'J) 8FF#'	.	.
=	=	=110	=110	=110	=110
2D	2V7	2r	4AAA 4EE	8aa'	2ee 2gg
.	.	.	.	(4bb	.
.	.	.	4r	.	.
.	.	.	.	8ccc#')	.
=	=	=111	=111	=111	=111
2T	2I	2r	4DD	4ddd	4dd 4ff#
.	.	.	4r	4dd	4r
*	*	*	*clefG2	*	*
=	=	=112	=112	=112	=112
*-	*-	*-	*-	*-	*-
